public/img/exclamation.svg

<svg width="41" height="175" viewBox="0 0 41 175" fill="none" xmlns="http://www.w3.org/2000/svg">
<path opacity="0.1" d="M2.28 0.333329H38.7867L32.62 115.773H8.2L2.28 0.333329ZM20.5333 174.727C14.7778 174.727 10.0089 172.918 6.22667 169.3C2.44444 165.518 0.553334 160.913 0.553334 155.487C0.553334 150.06 2.44444 145.538 6.22667 141.92C10.0089 138.302 14.7778 136.493 20.5333 136.493C26.1244 136.493 30.7289 138.302 34.3467 141.92C38.1289 145.538 40.02 150.06 40.02 155.487C40.02 160.913 38.1289 165.518 34.3467 169.3C30.7289 172.918 26.1244 174.727 20.5333 174.727Z" fill="#CE3B65"/>
</svg>

<svg width="41" height="175" fill="none" xmlns="http://www.w3.org/2000/svg"><path opacity=".1" d="M2.28.333h36.507l-6.167 115.44H8.2L2.28.333zm18.253 174.394c-5.755 0-10.524-1.809-14.306-5.427-3.783-3.782-5.674-8.387-5.674-13.813 0-5.427 1.891-9.949 5.674-13.567 3.782-3.618 8.55-5.427 14.306-5.427 5.591 0 10.196 1.809 13.814 5.427 3.782 3.618 5.673 8.14 5.673 13.567 0 5.426-1.891 10.031-5.673 13.813-3.618 3.618-8.223 5.427-13.814 5.427z" fill="#CE3B65"/></svg>
